X:1
T: The Earl of Home's Country Dance
C:
R:Strathspey
Q: 128
K:D
M:4/4
L:1/16
|:d2|A3D A3F B3E GB3|A3D A3F BG3 A3F|G3B F3A E3F GB3|A3D A3F A3D F2d2|
A3D A3F B3E GB3|A3D A3F BG3 A3F|G3B F3A E3F GB3|A3D A3F A3D F2A2|
d3e f3d c3d e3f|d3e f3d e3c d3B|A3F d3F E3F G3B|A3D A3F AD3 D3A|
dcde f3d c3d e3f|d3e f3d e3c d3B|AF3 d3F E3F GB3|A3F A3B d3A B2:|
